sands/images/icon-serv2.svg

<svg width="56" height="56" viewBox="0 0 56 56" fill="none" xmlns="http://www.w3.org/2000/svg">
<path d="M31.1552 30.0437H29.3806V31.8183H27.606V33.593H29.3806V35.3676H31.1552V33.593H32.9298V31.8183H31.1552V30.0437Z" fill="#FE9901"/>
<path opacity="0.7" d="M56 17.6214V8.74827H51.5634V5.40828L53.8866 0.762451H43.9164L46.2396 5.40828V8.74827H43.9714C43.3558 7.69242 42.2237 6.97364 40.9157 6.97364H26.7187C24.7612 6.97364 23.1694 8.56544 23.1694 10.5229H18.7328V6.97364H5.42314C2.97696 6.97364 0.986572 8.96403 0.986572 11.4102V12.2975H10.747V14.0722H0.986572V14.9595C0.986572 17.4056 2.97696 19.396 5.42314 19.396H18.7328V15.8468H23.1694C23.1694 17.8042 24.7612 19.396 26.7187 19.396H27.2867L24.3496 28.7964C23.6053 29.9177 23.1694 31.2612 23.1694 32.7057C23.1694 36.6198 26.3539 39.8042 30.2679 39.8042C30.6184 39.8042 30.9607 39.7704 31.2982 39.7206L32.7345 46.9027H31.494L29.7194 50.452H27.606V55.7759H56V50.452H53.8866L52.1119 46.9027H50.6761V40.1894L37.4994 32.2833L40.7203 19.396H40.9157C42.2237 19.396 43.3558 18.6773 43.9714 17.6214H46.2396V20.0741L43.9164 24.7199H53.8866L51.5634 20.0741V17.6214H56ZM2.91284 10.5229C3.27938 9.49001 4.26591 8.74827 5.42314 8.74827H16.9582V10.5229H2.91284ZM16.9582 17.6214H5.42314C4.26591 17.6214 3.27938 16.8797 2.91284 15.8468H16.9582V17.6214ZM18.7328 14.0722H12.5216V12.2975H23.1694V14.0722H18.7328ZM24.944 32.7057C24.944 29.7695 27.3317 27.3819 30.2679 27.3819C33.2041 27.3819 35.5918 29.7695 35.5918 32.7057C35.5918 35.6419 33.2041 38.0296 30.2679 38.0296C27.3317 38.0296 24.944 35.6419 24.944 32.7057ZM37.2104 34.1797L43.0711 37.696L33.5793 42.0767L33.0143 39.2505C35.1295 38.3598 36.7239 36.4725 37.2104 34.1797V34.1797ZM44.7851 38.7246L47.8677 40.5746L34.4692 46.5293L33.9367 43.8665L44.8367 38.8363L44.7851 38.7246ZM54.2254 54.0013H29.3806V52.2266H54.2254V54.0013ZM51.9022 50.452H31.7037L32.591 48.6774H51.0149L51.9022 50.452ZM37.9981 46.9027L48.9015 42.0572V46.9027H37.9981ZM36.4384 29.2106C35.2166 27.0625 32.9112 25.6072 30.2679 25.6072C29.0674 25.6072 27.937 25.9088 26.9448 26.4378L29.1453 19.396H38.8928L36.4384 29.2106ZM42.6903 15.8468C42.6903 16.8255 41.8944 17.6214 40.9157 17.6214H26.7187C25.7399 17.6214 24.944 16.8255 24.944 15.8468V10.5229C24.944 9.54417 25.7399 8.74827 26.7187 8.74827H40.9157C41.8944 8.74827 42.6903 9.54417 42.6903 10.5229V15.8468ZM51.0149 2.53708L50.1276 4.3117H47.6754L46.7881 2.53708H51.0149ZM48.0142 6.08633H49.7888V8.74827H48.0142V6.08633ZM54.2254 10.5229V12.2975H44.4649V10.5229H54.2254ZM44.4649 14.0722H54.2254V15.8468H44.4649V14.0722ZM46.7881 22.9453L47.6754 21.1707H50.1276L51.0149 22.9453H46.7881ZM49.7888 19.396H48.0142V17.6214H49.7888V19.396Z" fill="#393939"/>
<path d="M30.2679 10.5229C28.8005 10.5229 27.606 11.7174 27.606 13.1849C27.606 14.6523 28.8005 15.8468 30.2679 15.8468C31.7353 15.8468 32.9298 14.6523 32.9298 13.1849C32.9298 11.7174 31.7353 10.5229 30.2679 10.5229ZM30.2679 14.0722C29.7783 14.0722 29.3806 13.6736 29.3806 13.1849C29.3806 12.6962 29.7783 12.2976 30.2679 12.2976C30.7575 12.2976 31.1552 12.6962 31.1552 13.1849C31.1552 13.6736 30.7575 14.0722 30.2679 14.0722Z" fill="#FE9901"/>
<path d="M37.3664 10.5229C35.899 10.5229 34.7045 11.7174 34.7045 13.1849C34.7045 14.6523 35.899 15.8468 37.3664 15.8468C38.8339 15.8468 40.0283 14.6523 40.0283 13.1849C40.0283 11.7174 38.8339 10.5229 37.3664 10.5229ZM37.3664 14.0722C36.8768 14.0722 36.4791 13.6736 36.4791 13.1849C36.4791 12.6962 36.8768 12.2976 37.3664 12.2976C37.856 12.2976 38.2537 12.6962 38.2537 13.1849C38.2537 13.6736 37.856 14.0722 37.3664 14.0722Z" fill="#FE9901"/>
<path opacity="0.7" d="M19.5565 41.147L20.9918 39.4274L17.3351 35.7698L15.6155 37.2061C15.2295 37.012 14.8305 36.8469 14.4198 36.7113L14.22 34.4805H9.04865L8.84805 36.7122C8.43732 36.8478 8.03785 37.0129 7.65225 37.2074L5.93265 35.7707L2.27595 39.4283L3.71133 41.1479C3.51724 41.5331 3.35216 41.9321 3.21655 42.3428L0.986572 42.5425V47.7139L3.21829 47.9145C3.35303 48.3244 3.51897 48.7247 3.7135 49.1094L2.27768 50.829L5.93438 54.4866L7.65399 53.0504C8.04002 53.2445 8.43905 53.4095 8.84978 53.5451L9.04865 55.776H14.22L14.4206 53.5443C14.8313 53.4087 15.2308 53.2436 15.6164 53.0491L17.336 54.4857L20.9927 50.8282L19.5573 49.1086C19.7514 48.7234 19.9165 48.3244 20.0521 47.9136L22.2821 47.7139V42.5425L20.0504 42.3419C19.9156 41.9312 19.7497 41.5318 19.5565 41.147V41.147ZM20.5075 46.0918L18.6627 46.2577L18.5084 46.8682C18.3407 47.5345 18.0773 48.171 17.7246 48.7589L17.4019 49.2996L18.5899 50.722L17.2281 52.0846L15.8049 50.8958L15.265 51.2185C14.678 51.5699 14.0415 51.8338 13.3734 52.0023L12.763 52.1565L12.5979 54.0014H10.6708L10.5048 52.1565L9.89437 52.0023C9.22628 51.8338 8.58983 51.5699 8.00276 51.2185L7.46379 50.8958L6.04053 52.0838L4.6788 50.7212L5.8668 49.2996L5.54402 48.7589C5.19265 48.171 4.92879 47.5345 4.76025 46.8682L4.60601 46.2577L2.7612 46.0918V44.1647L4.60601 43.9987L4.76025 43.3883C4.92792 42.7219 5.19135 42.0855 5.54402 41.4975L5.8668 40.9568L4.6788 39.5344L6.04053 38.1718L7.46379 39.3607L8.00363 39.0379C8.59069 38.6865 9.22715 38.4227 9.89523 38.2542L10.5057 38.0999L10.6708 36.2551H12.5979L12.7638 38.0999L13.3743 38.2542C14.0424 38.4227 14.6788 38.6865 15.2659 39.0379L15.8049 39.3607L17.2281 38.1727L18.5899 39.5353L17.4019 40.9568L17.7246 41.4975C18.076 42.0855 18.3399 42.7219 18.5084 43.3883L18.6627 43.9987L20.5075 44.1647V46.0918Z" fill="#393939"/>
<path d="M11.6343 39.8042C8.69811 39.8042 6.31042 42.1919 6.31042 45.1281C6.31042 48.0643 8.69811 50.452 11.6343 50.452C14.5705 50.452 16.9582 48.0643 16.9582 45.1281C16.9582 42.1919 14.5705 39.8042 11.6343 39.8042ZM11.6343 48.6773C9.67684 48.6773 8.08505 47.0855 8.08505 45.1281C8.08505 43.1706 9.67684 41.5788 11.6343 41.5788C13.5918 41.5788 15.1836 43.1706 15.1836 45.1281C15.1836 47.0855 13.5918 48.6773 11.6343 48.6773Z" fill="#FE9901"/>
<path d="M10.7471 21.1707H12.5217V22.9453H10.7471V21.1707Z" fill="#FE9901"/>
<path d="M10.7471 24.72H12.5217V26.4946H10.7471V24.72Z" fill="#FE9901"/>
<path d="M10.7471 28.269H12.5217V30.0437H10.7471V28.269Z" fill="#FE9901"/>
</svg>

<svg width="56" height="56" fill="none" xmlns="http://www.w3.org/2000/svg"><path d="M31.155 30.044h-1.774v1.774h-1.775v1.775h1.775v1.775h1.774v-1.775h1.775v-1.775h-1.775v-1.774z" fill="#FE9901"/><path opacity=".7" d="M56 17.621V8.748h-4.437v-3.34L53.887.762h-9.97l2.323 4.646v3.34h-2.27a3.537 3.537 0 00-3.055-1.774H26.719a3.553 3.553 0 00-3.55 3.549h-4.436v-3.55H5.423A4.442 4.442 0 00.987 11.41v.887h9.76v1.775H.987v.888a4.442 4.442 0 004.436 4.436h13.31v-3.55h4.436a3.553 3.553 0 003.55 3.55h.568l-2.937 9.4a7.046 7.046 0 00-1.18 3.91 7.107 7.107 0 007.098 7.098c.35 0 .693-.034 1.03-.083l1.436 7.182h-1.24l-1.775 3.549h-2.113v5.324H56v-5.324h-2.113l-1.775-3.55h-1.436V40.19L37.5 32.283l3.221-12.887h.196c1.308 0 2.44-.719 3.055-1.775h2.269v2.453l-2.324 4.646h9.97l-2.323-4.646v-2.453H56zM2.913 10.523a2.667 2.667 0 012.51-1.775h11.535v1.775H2.913zm14.045 7.098H5.423a2.667 2.667 0 01-2.51-1.774h14.045v1.774zm1.775-3.549h-6.211v-1.774h10.647v1.774h-4.436zm6.211 18.634a5.33 5.33 0 015.324-5.324 5.33 5.33 0 015.324 5.324 5.33 5.33 0 01-5.324 5.324 5.33 5.33 0 01-5.324-5.324zM37.21 34.18l5.861 3.516-9.492 4.38-.565-2.825a7.123 7.123 0 004.196-5.071zm7.575 4.545l3.083 1.85-13.399 5.954-.532-2.663 10.9-5.03-.052-.111zM54.225 54H29.381v-1.774h24.844V54zm-2.323-3.549H31.704l.887-1.775h18.424l.887 1.775zm-13.904-3.55l10.904-4.845v4.846H37.998zm-1.56-17.691a7.099 7.099 0 00-6.17-3.604c-1.2 0-2.331.302-3.323.83l2.2-7.041h9.748l-2.455 9.815zm6.252-13.364c0 .979-.796 1.774-1.774 1.774H26.719a1.776 1.776 0 01-1.775-1.774v-5.324c0-.979.796-1.775 1.775-1.775h14.197c.978 0 1.774.796 1.774 1.775v5.324zm8.325-13.31l-.887 1.775h-2.453l-.887-1.775h4.227zm-3 3.55h1.774v2.661h-1.775V6.086zm6.21 4.436v1.774h-9.76v-1.774h9.76zm-9.76 3.55h9.76v1.774h-9.76v-1.775zm2.323 8.872l.887-1.774h2.453l.887 1.774h-4.227zm3-3.549h-1.774V17.62h1.775v1.775z" fill="#393939"/><path d="M30.268 10.523a2.665 2.665 0 00-2.662 2.662 2.665 2.665 0 002.662 2.662 2.665 2.665 0 002.662-2.662 2.665 2.665 0 00-2.662-2.662zm0 3.55a.888.888 0 010-1.775.888.888 0 010 1.774zm7.098-3.55a2.665 2.665 0 00-2.661 2.662 2.665 2.665 0 002.661 2.662 2.665 2.665 0 002.662-2.662 2.665 2.665 0 00-2.662-2.662zm0 3.55a.888.888 0 010-1.775.888.888 0 010 1.774z" fill="#FE9901"/><path opacity=".7" d="M19.556 41.147l1.436-1.72-3.657-3.657-1.72 1.436a8.802 8.802 0 00-1.195-.495l-.2-2.23H9.049l-.2 2.231c-.412.136-.811.3-1.197.495l-1.72-1.436-3.656 3.657 1.435 1.72a8.659 8.659 0 00-.494 1.195l-2.23.2v5.17l2.231.201c.135.41.301.81.495 1.195l-1.435 1.72 3.656 3.658 1.72-1.437c.386.195.785.36 1.196.495l.199 2.231h5.171l.2-2.232c.411-.135.81-.3 1.196-.495l1.72 1.437 3.657-3.658-1.436-1.72c.194-.385.36-.784.495-1.194l2.23-.2v-5.172l-2.232-.2c-.134-.41-.3-.81-.494-1.195zm.951 4.945l-1.844.166-.155.61a6.987 6.987 0 01-.783 1.89l-.323.542 1.188 1.422-1.362 1.363-1.423-1.19-.54.323a7.024 7.024 0 01-1.892.784l-.61.154-.165 1.845H10.67l-.166-1.844-.61-.155a7.026 7.026 0 01-1.892-.784l-.54-.322-1.422 1.188-1.362-1.363L5.867 49.3l-.323-.541a7.057 7.057 0 01-.784-1.89l-.154-.611-1.845-.166v-1.927l1.845-.166.154-.61a6.988 6.988 0 01.784-1.892l.323-.54-1.188-1.423 1.362-1.362 1.423 1.189.54-.323a7.025 7.025 0 011.891-.784l.61-.154.166-1.845h1.927l.166 1.845.61.154a7.026 7.026 0 011.892.784l.539.323 1.423-1.188 1.362 1.362-1.188 1.422.323.54a7.07 7.07 0 01.783 1.891l.155.61 1.845.167v1.927z" fill="#393939"/><path d="M11.634 39.804a5.33 5.33 0 00-5.324 5.324 5.33 5.33 0 005.324 5.324 5.33 5.33 0 005.324-5.324 5.33 5.33 0 00-5.324-5.324zm0 8.873a3.553 3.553 0 01-3.549-3.549 3.553 3.553 0 013.55-3.55 3.553 3.553 0 013.549 3.55 3.553 3.553 0 01-3.55 3.55zm-.887-27.507h1.775v1.775h-1.775v-1.774zm0 3.55h1.775v1.775h-1.775V24.72zm0 3.549h1.775v1.775h-1.775v-1.775z" fill="#FE9901"/></svg>
